X: 41290
T: Tumbledown
R: jig
M: 6/8
K: Eminor
D|:EFE EFG|FED GFG|ABc BAG|AGF GFD|
(3DEEE EFG|FED dAG|FGE DEF|EFE E2D:|
|:EFE d2c-|c2B~A2F|GAB AGF|GFE FED|
EFE d2c-|c2B~A2F|GFE DEF|EFE E2D:|

